X:1
T:Money in Both Pockets
M:6/8
L:1/8
K:D
A| "D"d2F "A"FEF| "D"DFA AFD| d2F "A"FEF| "D"D2f fef|!
"D"d2F "A"FEF| "D"DFA AFD| "Em"EFE EFA| "G"B3 B2:|]!
A| "D"dfa afd| "A"c e95 ea ecA| "D"dfa afd| "G"g3 "D"fga|!
"G"bag "D"agf| "A"ede "D"fdB| ABA AFA| "G"B3 B2 :|]
